src/16/actions/category2parent.svg

<svg xmlns="http://www.w3.org/2000/svg" viewBox="0 0 16 16"><path d="M2 2v12h7v-1H3V5h10v3h1V2h-2v2h-2V2H6v2H4V2H2zm8 7v5h5V9h-1v1h-1V9h-1v1h-1V9h-1zm1 2h3v2h-3v-2z" fill="currentColor" color="#5d656b"/><path d="M4 7v4h5V6H8v1H7V6H6v1H5V6H4zm1 1h3v2H5z" fill="currentColor" color="#3daee9"/></svg>

<svg xmlns="http://www.w3.org/2000/svg" viewBox="0 0 16 16">
  <defs id="defs3051">
    <style type="text/css" id="current-color-scheme">
      .ColorScheme-Text {
        color:#5d656b;
      }
      .ColorScheme-Highlight {
        color:#3daee9;
      }
      </style>
  </defs>
  <path 
        style="fill:currentColor;fill-opacity:1;stroke:none"
        d="M 2 2 L 2 14 L 9 14 L 9 13 L 3 13 L 3 5 L 13 5 L 13 8 L 14 8 L 14 2 L 12 2 L 12 4 L 10 4 L 10 2 L 6 2 L 6 4 L 4 4 L 4 2 L 2 2 z M 10 9 L 10 14 L 15 14 L 15 9 L 14 9 L 14 10 L 13 10 L 13 9 L 12 9 L 12 10 L 11 10 L 11 9 L 10 9 z M 11 11 L 14 11 L 14 13 L 11 13 L 11 11 z "
        class="ColorScheme-Text"
        />
  <path 
        style="fill:currentColor;fill-opacity:1;stroke:none"
        d="M 4,7 4,11 9,11 9,6 8,6 8,7 7,7 7,6 6,6 6,7 5,7 5,6 4,6 Z m 1,1 3,0 0,2 -3,0 z" 
        class="ColorScheme-Highlight"
        />
</svg>
